icons/file/icon_format-unknown_l_red.svg

<svg width="30" height="30" viewBox="0 0 30 30" fill="none" xmlns="http://www.w3.org/2000/svg">
<path fill-rule="evenodd" clip-rule="evenodd" d="M8 28C6.96133 27.9987 5.96378 27.594 5.21785 26.8712C4.47192 26.1484 4.03597 25.1641 4.002 24.126L4 8.293L10.293 2H21C23.206 2 25 3.794 25 6V24H24V6C24 4.346 22.654 3 21 3H10.707L5 8.707V24C5 25.654 6.346 27 8 27H21C22.654 27 24 25.654 24 24H25C25 26.206 23.206 28 21 28H8Z" fill="#EF3124"/>
<path d="M14.367 20.491C13.783 20.491 13.363 20.92 13.363 21.504C13.3588 21.637 13.382 21.7694 13.4309 21.8931C13.4799 22.0168 13.5537 22.1291 13.6478 22.2232C13.7419 22.3173 13.8542 22.3911 13.9779 22.4401C14.1016 22.489 14.234 22.5122 14.367 22.508C14.942 22.508 15.363 22.079 15.363 21.504C15.363 20.921 14.942 20.491 14.367 20.491ZM14.64 10.044C16.055 10.044 17.048 10.948 17.048 12.193C17.048 13.158 16.635 13.763 15.527 14.482C14.288 15.271 13.778 16.008 13.787 17.175V18H14.956V17.342C14.956 16.368 15.281 15.868 16.433 15.131C17.637 14.359 18.287 13.438 18.287 12.14C18.287 10.351 16.802 9 14.683 9C12.415 9 11.097 10.447 11 12.307H12.143C12.259 10.921 13.234 10.044 14.64 10.044Z" fill="#EF3124"/>
</svg>

<svg width="30" height="30" fill="none" xmlns="http://www.w3.org/2000/svg"><path fill-rule="evenodd" clip-rule="evenodd" d="M8 28a4.005 4.005 0 01-3.998-3.874L4 8.293 10.293 2H21c2.206 0 4 1.794 4 4v18h-1V6c0-1.654-1.346-3-3-3H10.707L5 8.707V24c0 1.654 1.346 3 3 3h13c1.654 0 3-1.346 3-3h1c0 2.206-1.794 4-4 4H8z" fill="#D5352B"/><path d="M14.367 20.491c-.584 0-1.004.429-1.004 1.013a.975.975 0 001.004 1.004c.575 0 .996-.429.996-1.004 0-.583-.421-1.013-.996-1.013zm.273-10.447c1.415 0 2.408.904 2.408 2.149 0 .965-.413 1.57-1.521 2.289-1.239.789-1.749 1.526-1.74 2.693V18h1.169v-.658c0-.974.325-1.474 1.477-2.211 1.204-.772 1.854-1.693 1.854-2.991 0-1.789-1.485-3.14-3.604-3.14-2.268 0-3.586 1.447-3.683 3.307h1.143c.116-1.386 1.091-2.263 2.497-2.263z" fill="#D5352B"/></svg>
